X:341
T: ES STEHT SICH AUF UNSERER WIESEN
N: E0966
O: Europa, Mitteleuropa, Deutschland, Rheinland
R: Tanz - Lied, Reigen, Mai - Tanz
M: 6/8
L: 1/8
K: G
D | GBBBAB | G3GF
E | DEFG2
G | B2BBAB | c3Bz
B | AAAAAB | GGGGF
E | DFGA2B | G2z3

